Yaru++/apps/symbolic/pdfshuffler-symbolic.svg

<svg height="16" width="16" xmlns="http://www.w3.org/2000/svg"><g fill="#808080"><path d="m4.9941406.18554688c-1.25819.01449999-2.1788906-.03060438-2.9316406.38476562-.37637.20766-.6732206.5593869-.8378906.9980469-.16439.43867-.2246094.9595775-.2246094 1.6171875v4 1.8144531 4c0 .65761.0598994 1.178577.2246094 1.617188.16468.438609.4615306.788523.8378906.996093.75272.41513 1.6735406.371649 2.9316406.386719h.0019532 5.0058592.003906c1.25819-.0145 2.178891.030604 2.931641-.384766.37637-.20766.673221-.559388.837891-.998046.16439-.438672.224609-.959578.224609-1.617188v-4-1.8144531-4c0-.65761-.059899-1.1785775-.224609-1.6171875-.16468-.43861-.461531-.78852377-.837891-.99609378-.75272-.41513-1.673541-.37164874-2.931641-.38671874h-.001953-5.0058591zm.0058594 1.00000002h4.9941406.0058594c1.25863.0152 2.089098.0598987 2.455078.2617187.18342.10116.287226.2128563.384766.4726563.0975.25979.160166.673235.160156 1.265625v4 1.8144531 4c0 .59239-.062596 1.005735-.160156 1.265625-.0976.25991-.201356.371466-.384766.472656-.36596.20192-1.196558.247009-2.455078.261719h-4.9941406-.0058594c-1.25863-.0152-2.0890981-.059899-2.4550781-.261719-.18342-.10116-.2872257-.212856-.3847657-.472656-.0974998-.25979-.1601662-.673235-.1601562-1.265625v-4-1.8144531-4c0-.59239.0626062-1.005735.1601562-1.265625.0976001-.25991.2013557-.3714663.3847657-.4726563.36596-.20192 1.1965581-.2470087 2.4550781-.2617187z"/><g enable-background="new" transform="matrix(.10163377 0 0 .10163377 12.280869 1.317237)"><path d="m-85.143073 47.732862q8.266666 0 12.693333 2.933333 4.426667 2.88 4.426667 9.493333 0 6.666667-4.48 9.653334-4.48 2.933333-12.8 2.933333h-2.613333v12.373334h-8.32v-36.426667q2.72-.533333 5.76-.746667 3.04-.213333 5.333333-.213333zm.533333 7.093333q-.906666 0-1.813333.05333-.853333.05333-1.493333.106666v10.666667h2.613333q4.32 0 6.506666-1.173334 2.186667-1.173333 2.186667-4.373333 0-1.546667-.586667-2.56-.533333-1.013333-1.6-1.6-1.013333-.64-2.506666-.853333-1.493333-.266667-3.306667-.266667z"/><path d="m-53.541406 78.346195q.586666.05333 1.333333.106666.8 0 1.866667 0 6.239999 0 9.226666-3.146666 3.04-3.146667 3.04-8.693333 0-5.813334-2.88-8.8-2.88-2.986667-9.12-2.986667-.853333 0-1.76.05333-.906666 0-1.706666.106666zm24.053333-11.733333q0 4.8-1.493334 8.373333-1.493333 3.573333-4.266666 5.92-2.72 2.346664-6.666667 3.520004-3.946666 1.17333-8.853333 1.17333-2.24 0-5.226667-.21333-2.986666-.16-5.866666-.74667v-36q2.88-.533334 5.973333-.693334 3.146667-.213333 5.386667-.213333 4.746666 0 8.586666 1.066667 3.893333 1.066666 6.666667 3.36 2.773333 2.293333 4.266666 5.866666 1.493334 3.573333 1.493334 8.586667z"/><path d="m-22.590578 85.119529v-36.96h24.7466656v6.986666h-16.4266656v7.733333h14.61333258v6.986667h-14.61333258v15.253334z"/></g></g></svg>

<?xml version="1.0" encoding="UTF-8" standalone="no"?>
<svg
   xmlns:dc="http://purl.org/dc/elements/1.1/"
   xmlns:cc="http://creativecommons.org/ns#"
   xmlns:rdf="http://www.w3.org/1999/02/22-rdf-syntax-ns#"
   xmlns:svg="http://www.w3.org/2000/svg"
   xmlns="http://www.w3.org/2000/svg"
   xmlns:sodipodi="http://sodipodi.sourceforge.net/DTD/sodipodi-0.dtd"
   xmlns:inkscape="http://www.inkscape.org/namespaces/inkscape"
   height="16"
   width="16"
   version="1.1"
   id="svg16"
   sodipodi:docname="pdfshuffler-symbolic.svg"
   inkscape:version="0.92.5 (2060ec1f9f, 2020-04-08)">
  <metadata
     id="metadata22">
    <rdf:RDF>
      <cc:Work
         rdf:about="">
        <dc:format>image/svg+xml</dc:format>
        <dc:type
           rdf:resource="http://purl.org/dc/dcmitype/StillImage" />
      </cc:Work>
    </rdf:RDF>
  </metadata>
  <defs
     id="defs20" />
  <sodipodi:namedview
     pagecolor="#ffffff"
     bordercolor="#666666"
     borderopacity="1"
     objecttolerance="10"
     gridtolerance="10"
     guidetolerance="10"
     inkscape:pageopacity="0"
     inkscape:pageshadow="2"
     inkscape:window-width="1920"
     inkscape:window-height="1016"
     id="namedview18"
     showgrid="false"
     inkscape:zoom="14.75"
     inkscape:cx="-13.856651"
     inkscape:cy="8"
     inkscape:window-x="0"
     inkscape:window-y="27"
     inkscape:window-maximized="1"
     inkscape:current-layer="g887" />
  <g
     fill="#808080"
     transform="translate(-552.00004 -240)"
     id="g14">
    <path
       style="fill:#808080;fill-opacity:1"
       d="M 4.9941406 0.18554688 C 3.7359506 0.20004687 2.81525 0.1549425 2.0625 0.5703125 C 1.68613 0.7779725 1.3892794 1.1296994 1.2246094 1.5683594 C 1.0602194 2.0070294 1 2.5279369 1 3.1855469 L 1 7.1855469 L 1 9 L 1 13 C 1 13.65761 1.0598994 14.178577 1.2246094 14.617188 C 1.3892894 15.055797 1.68614 15.405711 2.0625 15.613281 C 2.81522 16.028411 3.7360406 15.98493 4.9941406 16 L 4.9960938 16 L 10.001953 16 L 10.005859 16 C 11.264049 15.9855 12.18475 16.030604 12.9375 15.615234 C 13.31387 15.407574 13.610721 15.055846 13.775391 14.617188 C 13.939781 14.178516 14 13.65761 14 13 L 14 9 L 14 7.1855469 L 14 3.1855469 C 14 2.5279369 13.940101 2.0069694 13.775391 1.5683594 C 13.610711 1.1297494 13.31386 0.77983563 12.9375 0.57226562 C 12.18478 0.15713562 11.263959 0.20061688 10.005859 0.18554688 L 10.003906 0.18554688 L 4.9980469 0.18554688 L 4.9941406 0.18554688 z M 5 1.1855469 L 9.9941406 1.1855469 L 10 1.1855469 C 11.25863 1.2007469 12.089098 1.2454456 12.455078 1.4472656 C 12.638498 1.5484256 12.742304 1.6601219 12.839844 1.9199219 C 12.937344 2.1797119 13.00001 2.5931569 13 3.1855469 L 13 7.1855469 L 13 9 L 13 13 C 13 13.59239 12.937404 14.005735 12.839844 14.265625 C 12.742244 14.525535 12.638488 14.637091 12.455078 14.738281 C 12.089118 14.940201 11.25852 14.98529 10 15 L 5.0058594 15 L 5 15 C 3.74137 14.9848 2.9109019 14.940101 2.5449219 14.738281 C 2.3615019 14.637121 2.2576962 14.525425 2.1601562 14.265625 C 2.0626564 14.005835 1.99999 13.59239 2 13 L 2 9 L 2 7.1855469 L 2 3.1855469 C 2 2.5931569 2.0626062 2.1798119 2.1601562 1.9199219 C 2.2577563 1.6600119 2.3615119 1.5484556 2.5449219 1.4472656 C 2.9108819 1.2453456 3.74148 1.2002569 5 1.1855469 z "
       transform="translate(552.00004,240)"
       id="path923" />
  </g>
  <g
     style="enable-background:new"
     id="g921"
     transform="translate(-49.450181,-15.78983)">
    <g
       id="g887"
       style="fill:#ffffff">
      <g
         id="g877"
         transform="matrix(0.10163377,0,0,0.10163377,61.73105,17.107067)"
         style="fill:#808080;fill-opacity:1">
        <path
           id="path871"
           d="m -85.143073,47.732862 q 8.266666,0 12.693333,2.933333 4.426667,2.88 4.426667,9.493333 0,6.666667 -4.48,9.653334 -4.48,2.933333 -12.8,2.933333 h -2.613333 v 12.373334 h -8.32 V 48.692862 q 2.72,-0.533333 5.76,-0.746667 3.04,-0.213333 5.333333,-0.213333 z m 0.533333,7.093333 q -0.906666,0 -1.813333,0.05333 -0.853333,0.05333 -1.493333,0.106666 v 10.666667 h 2.613333 q 4.32,0 6.506666,-1.173334 2.186667,-1.173333 2.186667,-4.373333 0,-1.546667 -0.586667,-2.56 -0.533333,-1.013333 -1.6,-1.6 -1.013333,-0.64 -2.506666,-0.853333 -1.493333,-0.266667 -3.306667,-0.266667 z"
           inkscape:connector-curvature="0"
           style="fill:#808080;fill-opacity:1" />
        <path
           id="path873"
           d="m -53.541406,78.346195 q 0.586666,0.05333 1.333333,0.106666 0.8,0 1.866667,0 6.239999,0 9.226666,-3.146666 3.04,-3.146667 3.04,-8.693333 0,-5.813334 -2.88,-8.8 -2.88,-2.986667 -9.12,-2.986667 -0.853333,0 -1.76,0.05333 -0.906666,0 -1.706666,0.106666 z m 24.053333,-11.733333 q 0,4.8 -1.493334,8.373333 -1.493333,3.573333 -4.266666,5.92 -2.72,2.346664 -6.666667,3.520004 -3.946666,1.17333 -8.853333,1.17333 -2.24,0 -5.226667,-0.21333 -2.986666,-0.16 -5.866666,-0.74667 v -36 q 2.88,-0.533334 5.973333,-0.693334 3.146667,-0.213333 5.386667,-0.213333 4.746666,0 8.586666,1.066667 3.893333,1.066666 6.666667,3.36 2.773333,2.293333 4.266666,5.866666 1.493334,3.573333 1.493334,8.586667 z"
           inkscape:connector-curvature="0"
           style="fill:#808080;fill-opacity:1" />
        <path
           id="path875"
           d="m -22.590578,85.119529 v -36.96 H 2.1560876 v 6.986666 H -14.270578 v 7.733333 H 0.34275458 v 6.986667 H -14.270578 v 15.253334 z"
           inkscape:connector-curvature="0"
           style="fill:#808080;fill-opacity:1" />
      </g>
    </g>
  </g>
</svg>
